X:1
T: The House of Bellabeg
C:Alexander Walker
R:Strathspey
Q: 128
K:C
M:4/4
L:1/16
|:F2|E3F G3c Ac3 G4|EG3 G3c d3c de3|E3F G3c Ac3 G3a|g3a g3e d4 c2F2|
E3F G3c Ac3 G4|EG3 G3c d3c de3|E3F G3c Ac3 G3a|g3a g3e d4 c2a2|
gc3 e3c gc3 e4|gc3 e3d cA3 A3^G|A3c G3e F3d E3c|DF3 E3D CA,3 A,3a|
gc3 e3c gc3 e4|gc3 e3g ad3 d3f|e3g d3e c3d A3c|G3c Ec3 D4 C2:|
